X: 1
T: String Quartet in E Major opus 17 no 1 mvt 2
C: Franz Joseph Haydn
%%abc-version 2.0
%%abcx-abcm2ps-target-version 5.9.1 (29 Sep 2008)
%%abc-creator hum2abc beta
%%abcx-conversion-date 2021/02/14 14:38:37
%%abc-copyright Copyright (c) 1994, 2000 Center for Computer Assisted Research in the Humanities
%%abc-edited-by Frances Bennion
%%abcx-initial-encoding-date 1997/04/15
%%gracespace 0 6 6
%%humdrum-veritas 53188286
%%humdrum-veritas-data 3425839136
%%linebreak <none>
%%barnumbers 0
L: 1/4
M: 3/4
N: Derived from op17n1-02.krn
Q: "Menuetto"
%%staves [1 2 3 4]
V: 1
V: 2
V: 3 clef=alto
V: 4 clef=bass
K: E
[V:1]E B B [I:setbarnb2] |
[V:2]E B B |
[V:3]z3 |
[V:4]E, z2 |
[V:1]B2 G3//E// |
[V:2]B2 G3//E// |
[V:3]G, B, E |
[V:4]E, G, E, |
[V:1]C c c |
[V:2]C c c |
[V:3]A, z2 |
[V:4]A, z2 |
[V:1]c2 A3//F// |
[V:2]c2 A3//F// |
[V:3]A, A, F, |
[V:4]A, F, A, |
[V:1]D2 B |
[V:2]D2 F |
[V:3]B,3- |
[V:4]B,2 D, |
[V:1]A2 G |
[V:2]F2 E |
[V:3]B,2 z |
[V:4]E, B,, E,, |
[V:1]E g g |
[V:2]E e e |
[V:3]z3 |
[V:4]z3 |
[V:1]g2 e3//c// |
[V:2]e2 G |
[V:3]E, E E |
[V:4]C, C C |
[V:1]^A f f |
[V:2]^A3 |
[V:3]E3 |
[V:4]C3 |
[V:1]^e/f/ g/f/ f |
[V:2]B3 |
[V:3]F3 |
[V:4]D3 |
[V:1]f f f |
[V:2]c3 |
[V:3]^A3 |
[V:4]E3 |
[V:1]^e/f/ g/f/ f |
[V:2]B3 |
[V:3]F3 |
[V:4]D3 |
[V:1]f/e/ d/e/ d |
[V:2]^A2 B |
[V:3]E2 F |
[V:4]C2 B, |
[V:1]d/c/ B/c/ B |
[V:2]G2 F |
[V:3]E2 D |
[V:4]E2 D |
[V:1]^B c d |
[V:2]G z2 |
[V:3]E z2 |
[V:4]E z2 |
[V:1]e G ^A |
[V:2]G2 E |
[V:3]E2 C |
[V:4]E,2 F, |
[V:1]c3 |
[V:2]E3 |
[V:3]^A,3 |
[V:4]B,,3 |
[V:1]B z2 |
[V:2]D z2 |
[V:3]B, z2 |
[V:4]B, z2 |
[V:1]z3 |
[V:2]z3 |
[V:3]z3 |
[V:4]B,, B, B, |
[V:1]z3 |
[V:2]z3 |
[V:3]C c c |
[V:4]B,2 A,3//F,// |
[V:1]z3 |
[V:2]A a a |
[V:3]c B D/F/ |
[V:4]D,2 B, |
[V:1]B b b |
[V:2]a g e/d/ |
[V:3]F E G |
[V:4]E, z2 |
[V:1]b2 a/g/ |
[V:2]c3- |
[V:3]C c c |
[V:4]A,, A, A, |
[V:1]g/f/ ^e/f/ a/f/ |
[V:2]c3- |
[V:3]c2 F |
[V:4]A,3- |
[V:1]c c f |
[V:2]c F F |
[V:3]F A, A, |
[V:4]A,3 |
[V:1]e2 d |
[V:2]F z2 |
[V:3]B, F F |
[V:4]A,, A, A, |
[V:1]B, B B |
[V:2]B, D D |
[V:3]F3 |
[V:4]A,3 |
[V:1]B2 A/G/ |
[V:2]E e/d/ c/B/ |
[V:3]E, G, G, |
[V:4]G,, G, G, |
[V:1]F E D |
[V:2]A G F |
[V:3]A, B, B,/A,/ |
[V:4]A, B, B,, |
[V:1]E z2 |
[V:2]E z2 |
[V:3]G, z2 |
[V:4]C, z2 |
[V:1]e c' c' |
[V:2]c a a |
[V:3]z3 |
[V:4]z3 |
[V:1]c'2 a3//f// |
[V:2]a2 f3//d// |
[V:3]C A A |
[V:4]A, F F |
[V:1]d b b |
[V:2]B d d |
[V:3]A2 F3//D// |
[V:4]F2 D3//B,// |
[V:1]b2 g3//e// |
[V:2]g2 e3//c// |
[V:3]B, G G |
[V:4]G, E E |
[V:1]c a a |
[V:2]A c c |
[V:3]G2 E3//C// |
[V:4]E2 C3//A,// |
[V:1]a2 f3//d// |
[V:2]f2 d3//B// |
[V:3]A, F F |
[V:4]F, D D |
[V:1]B a a |
[V:2]F2 B |
[V:3]F B, F |
[V:4]D2 D, |
[V:1]g/b/ c'/b/ b |
[V:2]B3 |
[V:3]G3 |
[V:4]E,3 |
[V:1]b b b |
[V:2]d3 |
[V:3]A3 |
[V:4]F,3 |
[V:1]^a/b/ c'/b/ b |
[V:2]e3 |
[V:3]B3 |
[V:4]G,3 |
[V:1]b b b |
[V:2]f3 |
[V:3]d3 |
[V:4]A,3 |
[V:1]^a/b/ c'/b/ b |
[V:2]e3 |
[V:3]B3 |
[V:4]G,3 |
[V:1]b b b |
[V:2]^e3 |
[V:3]c3- |
[V:4]G,3 |
[V:1]b/^a/ g/f/ =a |
[V:2]f2 z |
[V:3]c2 B |
[V:4]F,2 F, |
[V:1]a/g/ f/e/ c' |
[V:2]e2 d |
[V:3]B2 F |
[V:4]E,2 A, |
[V:1]c'/b/ a/g/ f/e/ |
[V:2]e3 |
[V:3]E3 |
[V:4]G,3 |
[V:1]^e f g |
[V:2]c z2 |
[V:3]A z2 |
[V:4]A, z2 |
[V:1]a c d |
[V:2]c2 A |
[V:3]A2 F |
[V:4]A,,2 B,, |
[V:1]f3 |
[V:2]A3 |
[V:3]D3 |
[V:4]E,,3 |
[V:1]e z2 |
[V:2]G z2 |
[V:3]E z2 |
[V:4]E, z2 |
[V:1]z3 |
[V:2]B3- |
[V:3]z3 |
[V:4]E, F, =G, |
[V:1]=c3- |
[V:2]B A =G |
[V:3]z3 |
[V:4]A, F, E, |
[V:1]c B A |
[V:2]F3- |
[V:3]z2 B,- |
[V:4]D,3 |
[V:1]=G3- |
[V:2]F E =D |
[V:3]B, C B, |
[V:4]E,3 |
[V:1]G F E |
[V:2]C3 |
[V:3]^A,3- |
[V:4]F,3- |
[V:1]=D2 =d- |
[V:2]=D2 F- |
[V:3]A, B, B,- |
[V:4]F, =G, =D, |
[V:1]d c ^A- |
[V:2]F E C- |
[V:3]B, C E- |
[V:4]E,2 F, |
[V:1]A B =d- |
[V:2]C B, F- |
[V:3]E =D B,- |
[V:4]=G,2 =D, |
[V:1]d c ^A |
[V:2]F E C |
[V:3]B, C E |
[V:4]E,2 F, |
[V:1]B z2 |
[V:2]=D z2 |
[V:3]=D z2 |
[V:4]B,, B, B,, |
[V:1]z3 |
[V:2]=d3- |
[V:3]B,3- |
[V:4]z B, A, |
[V:1]e3- |
[V:2]d =c B |
[V:3]B, =C =D |
[V:4]G,3 |
[V:1]e =d =c |
[V:2]=c3- |
[V:3]=C B, A,- |
[V:4]A,3 |
[V:1]=d3- |
[V:2]c B A |
[V:3]A, B, =C |
[V:4]F,3 |
[V:1]d =g2- |
[V:2]B3 |
[V:3]B, z2 |
[V:4]=G, B, C |
[V:1]g f2- |
[V:2]A3 |
[V:3]z3 |
[V:4]=D2 ^D |
[V:1]f e2- |
[V:2]=G2 ^A |
[V:3]z2 =G- |
[V:4]E2 =C |
[V:1]e d =g- |
[V:2]B2 ^A |
[V:3]G F E |
[V:4]B,3- |
[V:1]g f e- |
[V:2]B2 ^A |
[V:3]D2 =G |
[V:4]B,3- |
[V:1]e d =g- |
[V:2]B2 ^A |
[V:3]F2 E |
[V:4]B,3- |
[V:1]=G f e |
[V:2]B2 ^A |
[V:3]D2 =G |
[V:4]B,3- |
[V:1]e d z |
[V:2]B z2 |
[V:3]F z2 |
[V:4]B, z2 |
[V:1]z3 |
[V:2]z3 |
[V:3]A3- |
[V:4]z F E |
[V:1]z3 |
[V:2]=c3- |
[V:3]A3- |
[V:4]D F E |
[V:1]f a g |
[V:2]c3- |
[V:3]A3- |
[V:4]D F E |
[V:1]f3- |
[V:2]c A B |
[V:3]A F =G |
[V:4]D3- |
[V:1]f a =g |
[V:2]=c3- |
[V:3]A3- |
[V:4]D F E |
[V:1]f2 a- |
[V:2]c B2- |
[V:3]A2 F- |
[V:4]D3 |
[V:1]a =g e- |
[V:2]B2 ^A- |
[V:3]F E =G- |
[V:4]E2 =C- |
[V:1]e =G2- |
[V:2]A E2- |
[V:3]G C2 |
[V:4]C ^A,,2 |
[V:1]G A F |
[V:2]E F D |
[V:3]B,3 |
[V:4]B,,3 |
[V:1]E z2 |]
[V:2]E z2 |]
[V:3]E, z2 |]
[V:4]E,, z2 |]

